outputs/icons/content/push_pin_off_round.svg

<svg xmlns="http://www.w3.org/2000/svg" width="1200" height="1200" fill="none"><path fill="#000" d="M273.803 114.451c-19.268-19.268-50.509-19.268-69.776 0-19.269 19.267-19.269 50.505 0 69.772l722.318 722.282c19.27 19.265 50.51 19.265 69.78 0 19.265-19.265 19.265-50.505 0-69.775zM277.511 637.965c62.443-17.21 108.228-74.1 108.545-141.876l245.989 245.976h-.275l.985 345.36c0 27.135-22.2 49.335-49.34 49.335-27.135 0-49.34-22.2-49.34-49.335l-.985-345.36H287.378c-27.136 0-49.339-22.2-49.339-49.335v-6.415c0-23.19 16.775-41.935 39.472-48.35M928.795 692.73c0 18.065-9.845 33.945-24.435 42.545L321.495 152.441a48.9 48.9 0 0 1 15.223-2.418h493.397c27.135 0 49.34 22.202 49.34 49.337s-22.205 49.337-49.34 49.337h-49.34v246.684c0 68.084 45.885 125.314 108.545 142.584 22.695 6.415 39.475 25.16 39.475 48.35z"/></svg>

<svg width="1200" height="1200" viewBox="0 0 1200 1200" fill="none" xmlns="http://www.w3.org/2000/svg"><path fill-rule="evenodd" d="M273.803 114.451C254.535 95.183 223.294 95.183 204.027 114.451C184.758 133.718 184.758 164.956 204.027 184.223L926.345 906.505C945.615 925.77 976.855 925.77 996.125 906.505C1015.39 887.24 1015.39 856 996.125 836.73L273.803 114.451ZM277.511 637.965C339.954 620.755 385.739 563.865 386.056 496.089L632.045 742.065H631.77L632.755 1087.425C632.755 1114.56 610.555 1136.76 583.415 1136.76C556.28 1136.76 534.075 1114.56 534.075 1087.425L533.09 742.065H287.378C260.242 742.065 238.039 719.865 238.039 692.73V686.315C238.039 663.125 254.814 644.38 277.511 637.965ZM928.795 692.73C928.795 710.795 918.95 726.675 904.36 735.275L321.495 152.441C326.295 150.872 331.412 150.023 336.718 150.023H830.115C857.25 150.023 879.455 172.225 879.455 199.36C879.455 226.495 857.25 248.697 830.115 248.697H780.775V495.381C780.775 563.465 826.66 620.695 889.32 637.965C912.015 644.38 928.795 663.125 928.795 686.315V692.73Z" fill="#1D1E23"/></svg>
